X: 10713
T: THE CLOG STOP DANCE
R: hornpipe
B: K\"ohler's Violin Repository, v.1, 1885 p.71 #3
F: http://www.archive.org/details/klersviolinrepos01edin
Z: 2012 John Chambers <jc:trillian.mit.edu>
M: C|
L: 1/8
K: Bb
uF2 |\
(3Bdd (3ddd (3Bdd (3ddd | (3Bdd (3ddd c>BA>F |\
(3Acc (3ccc (3Acc (3ccc | (3Acc (3ccc B>AG>A :|
{c}vB>AB>d e2g2 | [f2d2]z2 z4 | ue>dc>B A>Bc>A | B2F2 D2B,2 |\
{c}B>AB>d e2g2 | [f2d2]z2 z4 | ue>dc>B A>Bc>A | B2b2 B2 "_D.C."|]

%%sep 2 1 500

